!! 00000] TT[WS
!!!OTL: Dui Hua
!!!ARE: Asia, China, Shanxi Quwo
!! Ethnic Group: Han
!! WI, 166
!!!SCT: J0200
!!!YEM: Copyright 1995, estate of Helmut Schaffrath.
**kern
*ICvox
*Ivox
*M2/4
*k[f#]
*G:
{8gg
16gg
16ee
4dd
=1
8dd
16dd
16b
4a
=2
8.dd
16b
8.dd
16e
=3
8.b
16a
8g
8d}
=4
{8b
8e
8b
16b
16b
=5
8e
8b
8a
8e
=6
8g
8d
8g
8e
=7
2d}
=8
{8gg
16gg
16ee
4dd
=9
8dd
16dd
16b
4a
=10
8.dd
16b
8.dd
16e
=11
8.b
16a
8g
8d}
=12
{8b
8e
8b
16b
16b
=13
8e
8b
8a
8g
=14
8g
8d
8g
8e
=15
2d}
=16
{8g
8e
[4g
=17
8g]
8a
4g
=18
4a
8g
8e
=19
8g
8e
4d}
=20
{8b
8e
8b
16b
16b
=21
8e
8b
8a
8e
=22
8g
8d
8g
8e
=23
2d}
==
!!!AGN: Xiaodiao, Duihua. Qingge
!!!ONB: ESAC (Essen Associative Code) Database: CHINA
!!!AMT: simple duple
!!!AIN: vox
!!!EED: Helmut Schaffrath
!!!EEV: 1.0
*-
!!!ONB: Tied note syntax fixed by Craig Sapp, 2004/05/03/
